brandFactory_export/1.Light/Flecha arriba izquierda_1Light.svg

<?xml version="1.0" encoding="UTF-8"?>
<svg width="24px" height="24px" viewBox="0 0 24 24" version="1.1" xmlns="http://www.w3.org/2000/svg" xmlns:xlink="http://www.w3.org/1999/xlink">
    <title>1.Light/Flecha arriba izquierda_1Light</title>
    <g id="Symbols" stroke="none" stroke-width="1" fill="none" fill-rule="evenodd">
        <g id="1.Light/Flecha-arriba-izquierda_1Light" fill="#5CB615" fill-rule="nonzero">
            <path d="M14.8268908,22.3394958 C14.3495798,22.3394958 13.9831933,21.9731092 13.7647059,21.7613445 L13.7613445,21.7579832 L7.55966387,15.4722689 C7.51596639,15.4285714 7.45882353,15.4016807 7.39831933,15.4016807 C7.36806723,15.4016807 7.31092437,15.405042 7.26722689,15.4521008 L3.9394958,18.7798319 L3.93277311,18.7865546 C3.61680672,19.0890756 3.05546218,19.1764706 2.62521008,18.9915966 C2.22857143,18.8201681 2,18.4571429 2.00336134,17.9966387 L2.00336134,2.87394958 C1.98319328,2.61848739 2.0605042,2.38991597 2.22184874,2.22857143 C2.38319328,2.06722689 2.61512605,1.98991597 2.86722689,2.01008403 L18.0672269,2.01680672 L18.0806723,2.01680672 C18.4739496,2.01680672 18.7932773,2.22521008 18.9546218,2.58487395 C19.1529412,3.03193277 19.0621849,3.6302521 18.7428571,3.97647059 L18.7327731,3.98655462 L15.6571429,7.06218487 C15.6134454,7.10588235 15.6067227,7.16302521 15.6067227,7.19327731 C15.610084,7.25378151 15.6336134,7.31092437 15.6806723,7.35462185 L21.7680672,13.4655462 C22.5478992,14.2453782 22.5411765,15.0789916 21.7478992,15.8722689 L15.6907563,21.9394958 L15.6806723,21.9495798 C15.3680672,22.2352941 15.0823529,22.3394958 14.8268908,22.3394958 Z M14.2420168,21.287395 C14.7294118,21.7714286 14.8907563,21.7613445 15.2201681,21.4621849 L21.2773109,15.4016807 C21.5428571,15.1361345 21.6773109,14.8907563 21.6807386,14.6689076 C21.6840336,14.4436975 21.5596639,14.2084034 21.297479,13.9462185 L15.2067227,7.83193277 C15.0420168,7.66722689 14.9445378,7.44537815 14.9378151,7.21680672 C14.9310924,6.97815126 15.0184874,6.75630252 15.1831933,6.58823529 L18.2554622,3.51596639 C18.389916,3.36470588 18.4336134,3.05882353 18.3428571,2.85714286 C18.2756303,2.70588235 18.1647059,2.68571429 18.0773109,2.68571429 L18.0739496,2.68571429 L2.85714286,2.6789916 C2.84705882,2.6789916 2.83361345,2.6789916 2.82352941,2.67563025 C2.76638655,2.66890756 2.72268908,2.6789916 2.70252101,2.69915966 C2.68235294,2.71932773 2.67226891,2.76638655 2.6789916,2.82016807 C2.6789916,2.8302521 2.68235294,2.84369748 2.68235294,2.85378151 L2.68235294,17.989916 C2.68235294,18.1848739 2.74957983,18.302521 2.89747899,18.3663866 C3.09915966,18.4537815 3.36134454,18.3966387 3.47226891,18.292437 L6.79663866,14.9680672 C6.96134454,14.8033613 7.18655462,14.7159664 7.42521008,14.7226891 C7.65714286,14.7294118 7.87563025,14.8235294 8.04033613,14.9915966 L14.2420168,21.287395 Z" id="Flecha-arriba-izquierda_1Light"></path>
        </g>
    </g>
</svg>

<svg width="24" height="24" viewBox="0 0 24 24" xmlns="http://www.w3.org/2000/svg"><path d="M14.827 22.34c-.477 0-.844-.367-1.062-.579l-.004-.003-6.201-6.286a.23.23 0 00-.162-.07.172.172 0 00-.13.05L3.938 18.78l-.006.007c-.316.302-.878.39-1.308.205-.396-.172-.625-.535-.622-.995V2.874a.803.803 0 01.219-.645.807.807 0 01.645-.219l15.2.007h.014c.393 0 .712.208.874.568.198.447.107 1.045-.212 1.391l-.01.01-3.076 3.076a.186.186 0 00-.05.131c.003.06.027.118.074.162l6.087 6.11c.78.78.773 1.614-.02 2.407L15.69 21.94l-.01.01c-.313.286-.599.39-.854.39zm-.585-1.053c.487.484.649.474.978.175l6.057-6.06c.266-.266.4-.511.404-.733.003-.225-.121-.46-.384-.723l-6.09-6.114a.914.914 0 01-.27-.615.854.854 0 01.246-.629l3.072-3.072c.135-.151.179-.457.088-.659-.067-.151-.178-.171-.266-.171h-.003L2.857 2.679c-.01 0-.023 0-.033-.003-.058-.007-.101.003-.121.023-.02.02-.03.067-.024.121l.003.034V17.99c0 .195.068.313.215.376.202.088.464.03.575-.074l3.325-3.324a.848.848 0 01.628-.245c.232.006.45.1.615.269l6.202 6.295z" fill="#5CB615" fill-rule="nonzero"/></svg>
